icons/death_alt.svg

<svg width="48" height="48" viewBox="0 0 48 48" fill="none" xmlns="http://www.w3.org/2000/svg">
<path fill-rule="evenodd" clip-rule="evenodd" d="M15.4147 25.3107C15.5451 25.3244 15.7334 25.3353 15.9999 25.3353C16.8699 25.3353 17.7017 25.5236 18.4206 25.9799C19.1472 26.441 19.6008 27.0759 19.8738 27.6995C20.1969 28.4379 20.2937 29.2455 20.3221 29.8728C21.1198 29.9938 22.3145 30 23.9999 30C25.6853 30 26.88 29.9938 27.6777 29.8728C27.7061 29.2455 27.8029 28.4379 28.1261 27.6995C28.399 27.0759 28.8526 26.441 29.5793 25.9799C30.2981 25.5236 31.1299 25.3353 31.9999 25.3353C32.2664 25.3353 32.4548 25.3244 32.5851 25.3107C32.5892 25.2864 32.5933 25.2598 32.5973 25.2309C32.6446 24.8923 32.6666 24.4049 32.6666 23.6701C32.6666 21.83 33.4062 20.7236 33.8722 20.0265C33.963 19.8907 34.0434 19.7705 34.1059 19.6634C34.4653 19.0474 34.9999 17.9205 34.9999 14.6739C34.9999 11.8116 33.7278 9.72132 31.7584 8.28398C29.7305 6.80396 26.9178 6 23.9999 6C21.0821 6 18.2693 6.80396 16.2414 8.28398C14.2721 9.72132 12.9999 11.8116 12.9999 14.6739C12.9999 17.9205 13.5345 19.0474 13.894 19.6634C13.9565 19.7705 14.0369 19.8907 14.1276 20.0265C14.5936 20.7236 15.3332 21.83 15.3332 23.6701C15.3333 24.4049 15.3552 24.8923 15.4025 25.2309C15.4066 25.2598 15.4106 25.2864 15.4147 25.3107ZM13.3332 23.6702C13.3333 26.6689 13.6666 27.3353 15.9999 27.3353C18.3332 27.3353 18.3332 29.3344 18.3332 30.6672C18.3332 32 20.6666 32 23.9999 32C27.3332 32 29.6666 32 29.6666 30.6672C29.6666 29.3344 29.6666 27.3353 31.9999 27.3353C34.3332 27.3353 34.6665 26.6689 34.6666 23.6702C34.6666 22.4837 35.0318 21.9232 35.4733 21.2456C36.1477 20.2106 36.9999 18.9027 36.9999 14.6739C37 0.442023 10.9998 0.442024 10.9999 14.6739C10.9999 18.9027 11.8522 20.2106 12.5265 21.2456C12.968 21.9232 13.3332 22.4837 13.3332 23.6702Z" fill="black"/>
<path fill-rule="evenodd" clip-rule="evenodd" d="M19.0025 19.9975C19.5547 19.9971 20.0021 19.549 20.0016 18.9967C20.0012 18.4444 19.5531 17.9971 19.0008 17.9975C18.4485 17.998 18.0012 18.4461 18.0016 18.9984C18.0021 19.5506 18.4502 19.998 19.0025 19.9975ZM19.0041 21.9975C20.6609 21.9962 22.003 20.6519 22.0016 18.9951C22.0003 17.3382 20.656 15.9962 18.9992 15.9975C17.3423 15.9989 16.0003 17.3431 16.0016 19C16.003 20.6569 17.3472 21.9989 19.0041 21.9975Z" fill="black"/>
<path fill-rule="evenodd" clip-rule="evenodd" d="M29.0032 19.9975C29.5555 19.9971 30.0028 19.549 30.0024 18.9967C30.0019 18.4444 29.5538 17.9971 29.0015 17.9975C28.4493 17.998 28.0019 18.4461 28.0024 18.9984C28.0028 19.5506 28.4509 19.998 29.0032 19.9975ZM29.0048 21.9975C30.6617 21.9962 32.0037 20.6519 32.0024 18.9951C32.001 17.3382 30.6568 15.9962 28.9999 15.9975C27.3431 15.9989 26.001 17.3431 26.0024 19C26.0037 20.6569 27.348 21.9989 29.0048 21.9975Z" fill="black"/>
<path fill-rule="evenodd" clip-rule="evenodd" d="M20.7253 38.5027L9.70112 42.048L10.3134 43.952L24.0008 39.5502L37.6953 43.9296L38.3045 42.0246L27.2745 38.4973L38.2987 34.952L37.6864 33.048L23.9991 37.4498L10.3045 33.0704L9.69531 34.9754L20.7253 38.5027Z" fill="black"/>
</svg>

<svg
  xmlns="http://www.w3.org/2000/svg"
  width="24"
  height="24"
  viewBox="0 0 24 24"
  fill="none"
  stroke="currentColor"
  stroke-width="2"
  stroke-linecap="round"
  stroke-linejoin="round"
>
  <path
    fill-rule="evenodd"
    d="M15.415 25.31c.13.014.318.025.585.025.87 0 1.702.189 2.42.645a3.8 3.8 0 0 1 1.454 1.72c.323.738.42 1.546.448 2.173.798.12 1.992.127 3.678.127s2.88-.006 3.678-.127c.028-.628.125-1.435.448-2.174a3.8 3.8 0 0 1 1.453-1.72c.72-.455 1.55-.644 2.42-.644.267 0 .456-.01.586-.024l.012-.08c.048-.339.07-.826.07-1.56 0-1.841.74-2.947 1.205-3.645q.138-.203.234-.363c.36-.616.894-1.742.894-4.99 0-2.861-1.272-4.952-3.242-6.389C29.731 6.804 26.918 6 24 6s-5.73.804-7.759 2.284C14.272 9.721 13 11.812 13 14.674c0 3.247.534 4.373.894 4.99q.096.16.234.362c.466.698 1.205 1.804 1.205 3.644 0 .735.022 1.222.07 1.56zm-2.082-1.64c0 2.999.334 3.665 2.667 3.665s2.333 2 2.333 3.332C18.333 32 20.667 32 24 32s5.667 0 5.667-1.333 0-3.332 2.333-3.332 2.666-.666 2.667-3.665c0-1.186.365-1.747.806-2.424C36.148 20.21 37 18.903 37 14.674c0-14.232-26-14.232-26 0 0 4.229.852 5.537 1.527 6.572.441.677.806 1.238.806 2.424"
    clip-rule="evenodd"
  />
  <path
    fill-rule="evenodd"
    d="M19.003 19.998a1 1 0 1 0-.002-2 1 1 0 0 0 .002 2m.001 2a3 3 0 1 0-.005-6 3 3 0 0 0 .005 6"
    clip-rule="evenodd"
  />
  <path
    fill-rule="evenodd"
    d="M29.003 19.998a1 1 0 1 0-.001-2 1 1 0 0 0 .001 2m.002 2a3 3 0 1 0-.005-6 3 3 0 0 0 .005 6"
    clip-rule="evenodd"
  />
  <path
    fill-rule="evenodd"
    d="M20.725 38.503 9.701 42.048l.612 1.904 13.688-4.402 13.694 4.38.61-1.905-11.03-3.528 11.024-3.545-.613-1.904L24 37.45l-13.694-4.38-.61 1.905z"
    clip-rule="evenodd"
  />
</svg>
